packages/kaspersky-hexa-ui-icons/src/iconsSVGs/24/StatusInfoSolid1.svg

<svg width="24" height="24" viewBox="0 0 24 24" fill="none" xmlns="http://www.w3.org/2000/svg">
<path d="M8 9.21753V14.7005C8.43353 14.5866 8.9448 14.5 9.5 14.5C10.0552 14.5 10.5665 14.5866 11 14.7005V9.21753C10.7411 9.11858 10.2709 9 9.5 9C8.72913 9 8.25894 9.11858 8 9.21753Z" fill="black"/>
<path d="M14.5 14.5C13.9448 14.5 13.4335 14.5866 13 14.7005V9.21753C13.2589 9.11858 13.7291 9 14.5 9C15.2709 9 15.7411 9.11858 16 9.21753V14.7005C15.5665 14.5866 15.0552 14.5 14.5 14.5Z" fill="black"/>
<path fill-rule="evenodd" clip-rule="evenodd" d="M12 22C17.5228 22 22 17.5228 22 12C22 6.47715 17.5228 2 12 2C6.47715 2 2 6.47715 2 12C2 17.5228 6.47715 22 12 22ZM10.9245 16.7714C11.1361 16.8496 11.335 16.9466 11.5339 17.0514C11.8251 17.2048 12.174 17.2053 12.4661 17.0514C12.665 16.9466 12.8639 16.8496 13.0755 16.7714C13.4557 16.6311 13.9597 16.5 14.5 16.5C15.0722 16.5 15.6661 16.6352 16.1947 16.8768C16.3099 16.9294 16.4234 16.9893 16.5339 17.0514C16.834 17.2095 17.1954 17.2052 17.4927 17.0368C17.8062 16.8593 18 16.5269 18 16.1666V8.66665C18 8.45218 17.9311 8.24393 17.8042 8.07227C17.5804 7.76956 17.2166 7.56403 16.8791 7.41678C16.3518 7.18667 15.5872 7 14.5 7C13.4128 7 12.6482 7.18667 12.1209 7.41678C12.0808 7.43426 12.0404 7.45255 12 7.47172C11.9596 7.45255 11.9192 7.43426 11.8791 7.41678C11.3518 7.18667 10.5872 7 9.5 7C8.41282 7 7.64824 7.18667 7.1209 7.41678C6.78344 7.56403 6.41956 7.76956 6.19581 8.07227C6.06893 8.24393 6 8.45218 6 8.66665V16.1666C6 16.5269 6.19379 16.8593 6.5073 17.0368C6.80462 17.2052 7.16602 17.2095 7.46605 17.0514C7.5766 16.9893 7.69011 16.9294 7.80534 16.8768C8.33385 16.6352 8.92782 16.5 9.5 16.5C10.0403 16.5 10.5443 16.6311 10.9245 16.7714Z" fill="black"/>
</svg>

<svg xmlns="http://www.w3.org/2000/svg" width="24" height="24" fill="none" viewBox="0 0 24 24"><path fill="#000" d="M8 9.218v5.483c.434-.114.945-.2 1.5-.2s1.067.087 1.5.201V9.219c-.259-.1-.729-.219-1.5-.219s-1.241.119-1.5.218m6.5 5.282c-.555 0-1.066.087-1.5.201V9.218c.259-.099.729-.217 1.5-.217s1.241.119 1.5.218v5.483c-.433-.114-.945-.2-1.5-.2"/><path fill="#000" fill-rule="evenodd" d="M12 22c5.5228 0 10-4.4772 10-10S17.5228 2 12 2 2 6.4772 2 12s4.4772 10 10 10m-1.0755-5.2286c.2116.0782.4105.1752.6094.28.2912.1534.6401.1539.9322 0 .1989-.1048.3978-.2018.6094-.28.3802-.1403.8842-.2714 1.4245-.2714.5722 0 1.1661.1352 1.6947.3768.1152.0526.2287.1125.3392.1746A1 1 0 0 0 18 16.1666v-7.5a1 1 0 0 0-.1958-.5943c-.2238-.3027-.5876-.5083-.9251-.6555C16.3518 7.1867 15.5872 7 14.5 7s-1.8518.1867-2.3791.4168a4 4 0 0 0-.1209.055 4 4 0 0 0-.1209-.055C11.3518 7.1867 10.5872 7 9.5 7s-1.8518.1867-2.3791.4168c-.3375.1472-.7013.3528-.925.6555A1 1 0 0 0 6 8.6667v7.4999a1 1 0 0 0 1.466.8848 4.6 4.6 0 0 1 .3393-.1746C8.334 16.6352 8.9278 16.5 9.5 16.5c.5403 0 1.0443.1311 1.4245.2714" clip-rule="evenodd"/></svg>
